app/dist/common/images/fangda-carbon-new-material-coltd.svg

<svg height="18" viewBox="0 0 18 18" width="18" xmlns="http://www.w3.org/2000/svg" xmlns:xlink="http://www.w3.org/1999/xlink"><linearGradient id="a" gradientUnits="userSpaceOnUse" x1="4.72" x2="13.04" y1="4.63" y2="13.44"><stop offset="0" stop-color="#268aa1"/><stop offset="1" stop-color="#2b3f95"/></linearGradient><linearGradient id="b" gradientUnits="userSpaceOnUse" x1="11.78" x2="5.48" y1="11.67" y2="6.05"><stop offset="0" stop-color="#042888"/><stop offset="1" stop-color="#0a86b9"/></linearGradient><linearGradient id="c" gradientUnits="userSpaceOnUse" x1="5.6" x2="12.75" y1="6.05" y2="10.59"><stop offset="0" stop-color="#79d9ef"/><stop offset=".1" stop-color="#4caac4"/><stop offset=".51" stop-color="#30b0d3"/><stop offset="1" stop-color="#067bb1"/></linearGradient><linearGradient id="d" gradientUnits="userSpaceOnUse" x1="8.6" x2="12.07" y1="7.65" y2="7.65"><stop offset=".31" stop-color="#ace0ed"/><stop offset="1" stop-color="#ace0ed" stop-opacity="0"/></linearGradient><linearGradient id="e" gradientUnits="userSpaceOnUse" x1="4.81" x2="12.56" y1="4.65" y2="13.02"><stop offset="0" stop-color="#e5f4fc"/><stop offset=".3" stop-color="#def3f6"/><stop offset=".6" stop-color="#b4e3ec"/><stop offset="1" stop-color="#dde9f5"/></linearGradient><path d="m0 0h18v18h-18z" fill="#f0f3fa"/><circle cx="9" cy="9" fill="url(#a)" r="6"/><path d="m12.93 11.11c-1.49 2.48-4.53 3.47-6.79 2.21-2.26-1.25-2.89-4.28-1.4-6.75 1.48-2.48 4.52-3.47 6.78-2.21 2.26 1.25 2.9 4.28 1.4 6.75z" fill="url(#b)"/><path d="m12.63 10.6c-1.38 2.3-4.2 3.21-6.3 2.05-2.1-1.17-2.68-3.98-1.3-6.28s4.2-3.22 6.3-2.05 2.68 3.98 1.3 6.27z" fill="url(#c)"/><path d="m8.5 8.97v-2.47h3.5v2.47z" fill="url(#d)"/><path d="m14.65 9a5.65 5.65 0 1 1 -11.3 0 5.65 5.65 0 0 1 11.3 0zm-.36 0a5.3 5.3 0 0 1 -6.29 5.2v-5.2h4v-1h-4v-2h5.36c.6.85.93 1.89.93 3zm-9.29 3.47v-6.94a5.27 5.27 0 0 0 0 6.94zm.53-7.47h6.94a5.27 5.27 0 0 0 -6.94 0z" fill="url(#e)" fill-rule="evenodd"/></svg>

<!-- by TradingView --><svg width="18" height="18" viewBox="0 0 18 18" xmlns="http://www.w3.org/2000/svg"><path fill="#F0F3FA" d="M0 0h18v18H0z"/><circle cx="9" cy="9" r="6" fill="url(#a3w404ur3)"/><path d="M12.93 11.11c-1.49 2.48-4.53 3.47-6.79 2.21-2.26-1.25-2.89-4.28-1.4-6.75 1.48-2.48 4.52-3.47 6.78-2.21 2.26 1.25 2.9 4.28 1.4 6.75Z" fill="url(#b3w404ur3)"/><path d="M12.63 10.6c-1.38 2.3-4.2 3.21-6.3 2.05-2.1-1.17-2.68-3.98-1.3-6.28 1.38-2.3 4.2-3.22 6.3-2.05 2.1 1.17 2.68 3.98 1.3 6.27Z" fill="url(#c3w404ur3)"/><path d="M8.5 8.97V6.5H12v2.47H8.5Z" fill="url(#d3w404ur3)"/><path fill-rule="evenodd" d="M14.65 9a5.65 5.65 0 1 1-11.3 0 5.65 5.65 0 0 1 11.3 0Zm-.36 0A5.3 5.3 0 0 1 8 14.2V9h4V8H8V6h5.36c.6.85.93 1.89.93 3ZM5 12.47V5.53a5.27 5.27 0 0 0 0 6.94ZM5.53 5H12.47a5.27 5.27 0 0 0-6.94 0Z" fill="url(#e3w404ur3)"/><defs><linearGradient id="a3w404ur3" x1="4.72" y1="4.63" x2="13.04" y2="13.44" gradientUnits="userSpaceOnUse"><stop stop-color="#268AA1"/><stop offset="1" stop-color="#2B3F95"/></linearGradient><linearGradient id="b3w404ur3" x1="11.78" y1="11.67" x2="5.48" y2="6.05" gradientUnits="userSpaceOnUse"><stop stop-color="#042888"/><stop offset="1" stop-color="#0A86B9"/></linearGradient><linearGradient id="c3w404ur3" x1="5.6" y1="6.05" x2="12.75" y2="10.59" gradientUnits="userSpaceOnUse"><stop stop-color="#79D9EF"/><stop offset=".1" stop-color="#4CAAC4"/><stop offset=".51" stop-color="#30B0D3"/><stop offset="1" stop-color="#067BB1"/></linearGradient><linearGradient id="d3w404ur3" x1="8.6" y1="7.65" x2="12.07" y2="7.65" gradientUnits="userSpaceOnUse"><stop offset=".31" stop-color="#ACE0ED"/><stop offset="1" stop-color="#ACE0ED" stop-opacity="0"/></linearGradient><linearGradient id="e3w404ur3" x1="4.81" y1="4.65" x2="12.56" y2="13.02" gradientUnits="userSpaceOnUse"><stop stop-color="#E5F4FC"/><stop offset=".3" stop-color="#DEF3F6"/><stop offset=".6" stop-color="#B4E3EC"/><stop offset="1" stop-color="#DDE9F5"/></linearGradient></defs></svg>
